X:373
T: EIN MAEDCHEN VON ACHTZEHN JAHREN
N: E0211A
O: Europa, Mitteleuropa, Deutschland, Nordsee, Budjadinger - Land
R: erzaehlendes Volks - Lied, Mahn -, Moral - Lied, Strafe; Untreue
M: 4/4
L: 1/16
K: F
F2A2 | c4c3dc4B2G2 | F6A2G4
G4 | A4f3fe4d3=B | c8z4
c4 | f4f3fe4c4 | d8c4z4
=B6d2c4z2A2 | c4F3AA2G2G2E2 | F8z4

